svg/fluentui-system-icons/ic_fluent_person_link_28_regular.svg

<svg width="28" height="28" viewBox="0 0 28 28" fill="none" xmlns="http://www.w3.org/2000/svg">
<path d="M20 16C21.4865 16 22.7205 17.0811 22.9585 18.5H21.4146C21.2241 17.9609 20.7341 17.5632 20.1445 17.5069L20 17.5H6C5.2203 17.5 4.57955 18.0949 4.50687 18.8555L4.5 19V19.7146C4.5 22.389 7.88879 24.5 13 24.5C13.0555 24.5 13.1108 24.4997 13.166 24.4992C13.3121 25.0365 13.5501 25.536 13.8622 25.9796C13.579 25.9931 13.2915 26 13 26C7.21053 26 3 23.4333 3 19.7146V19C3 17.3431 4.34315 16 6 16H20ZM13 2C16.3137 2 19 4.68629 19 8C19 11.3137 16.3137 14 13 14C9.68629 14 7 11.3137 7 8C7 4.68629 9.68629 2 13 2ZM13 3.5C10.5147 3.5 8.5 5.51472 8.5 8C8.5 10.4853 10.5147 12.5 13 12.5C15.4853 12.5 17.5 10.4853 17.5 8C17.5 5.51472 15.4853 3.5 13 3.5ZM17.75 21C16.5074 21 15.5 22.0074 15.5 23.25C15.5 24.4926 16.5074 25.5 17.75 25.5H18.25C18.6642 25.5 19 25.8358 19 26.25C19 26.6642 18.6642 27 18.25 27H17.75C15.6789 27 14 25.3211 14 23.25C14 21.1789 15.6789 19.5 17.75 19.5H18.25C18.6642 19.5 19 19.8358 19 20.25C19 20.6642 18.6642 21 18.25 21H17.75ZM17 23.25C17 22.8358 17.3358 22.5 17.75 22.5H23.25C23.6642 22.5 24 22.8358 24 23.25C24 23.6642 23.6642 24 23.25 24H17.75C17.3358 24 17 23.6642 17 23.25ZM23.25 25.5C24.4926 25.5 25.5 24.4926 25.5 23.25C25.5 22.0074 24.4926 21 23.25 21H22.75C22.3358 21 22 20.6642 22 20.25C22 19.8358 22.3358 19.5 22.75 19.5H23.25C25.3211 19.5 27 21.1789 27 23.25C27 25.3211 25.3211 27 23.25 27H22.75C22.3358 27 22 26.6642 22 26.25C22 25.8358 22.3358 25.5 22.75 25.5H23.25Z" fill="#212121"/>
</svg>

<svg xmlns="http://www.w3.org/2000/svg" width="28" height="28"><path d="M20 16a3 3 0 0 1 2.959 2.5h-1.544c-.19-.54-.68-.937-1.27-.993L20 17.5H6a1.5 1.5 0 0 0-1.493 1.355L4.5 19v.715c0 2.674 3.389 4.785 8.5 4.785h.166c.146.537.384 1.036.696 1.48-.283.013-.57.02-.862.02-5.79 0-10-2.567-10-6.285V19a3 3 0 0 1 3-3h14ZM13 2a6 6 0 1 1 0 12 6 6 0 0 1 0-12Zm0 1.5a4.5 4.5 0 1 0 0 9 4.5 4.5 0 0 0 0-9ZM17.75 21a2.25 2.25 0 0 0 0 4.5h.5a.75.75 0 0 1 0 1.5h-.5a3.75 3.75 0 1 1 0-7.5h.5a.75.75 0 0 1 0 1.5h-.5ZM17 23.25a.75.75 0 0 1 .75-.75h5.5a.75.75 0 0 1 0 1.5h-5.5a.75.75 0 0 1-.75-.75Zm6.25 2.25a2.25 2.25 0 0 0 0-4.5h-.5a.75.75 0 0 1 0-1.5h.5a3.75 3.75 0 1 1 0 7.5h-.5a.75.75 0 0 1 0-1.5h.5Z"/></svg>
